X:558
T: Adam und Eva (256), S. 549
N: T0446
O: Luxemburg
S: Singendes Volk, Esch-Alzette, 1937 posth.]
N: Reuland, hhh Franz Petry, 1908
R: Scherz-, Spiel-, Spottlied]
M: 3/8
L: 1/16
K: C
G2 | c2c2cc | c2B2A2 | A2G2G2 | G2z2
G2 | A2AAAA | c2B2A2 | G2G2G2 | E2z2
GG | f2f2f2 | f2z2
dd | e2e2e2 | e2z2
c2 | d2dddd | f2B2B2 | d2c2c2 | c2z2

@@@ Tune index: 8612
